assets/images/svgs/facebook.svg

<svg width="24" height="24" viewBox="0 0 24 24" fill="none" xmlns="http://www.w3.org/2000/svg">
<path d="M16.5 6H13.5C12.9477 6 12.5 6.44772 12.5 7V10H16.5C16.6137 9.99748 16.7216 10.0504 16.7892 10.1419C16.8568 10.2334 16.8758 10.352 16.84 10.46L16.1 12.66C16.0318 12.8619 15.8431 12.9984 15.63 13H12.5V20.5C12.5 20.7761 12.2761 21 12 21H9.5C9.22386 21 9 20.7761 9 20.5V13H7.5C7.22386 13 7 12.7761 7 12.5V10.5C7 10.2239 7.22386 10 7.5 10H9V7C9 4.79086 10.7909 3 13 3H16.5C16.7761 3 17 3.22386 17 3.5V5.5C17 5.77614 16.7761 6 16.5 6Z" fill="url(#paint0_linear_4_3614)"/>
<defs>
<linearGradient id="paint0_linear_4_3614" x1="7" y1="12" x2="17" y2="12" gradientUnits="userSpaceOnUse">
<stop stop-color="#17E3A6"/>
<stop offset="1" stop-color="#FF669F"/>
</linearGradient>
</defs>
</svg>

<svg xmlns="http://www.w3.org/2000/svg" width="24" height="24" fill="none" xmlns:v="https://vecta.io/nano"><path d="M16.5 6h-3a1 1 0 0 0-1 1v3h4a.35.35 0 0 1 .34.46l-.74 2.2a.5.5 0 0 1-.47.34H12.5v7.5a.5.5 0 0 1-.5.5H9.5a.5.5 0 0 1-.5-.5V13H7.5a.5.5 0 0 1-.5-.5v-2a.5.5 0 0 1 .5-.5H9V7a4 4 0 0 1 4-4h3.5a.5.5 0 0 1 .5.5v2a.5.5 0 0 1-.5.5z" fill="url(#A)"/><defs><linearGradient id="A" x1="7" y1="12" x2="17" y2="12" gradientUnits="userSpaceOnUse"><stop stop-color="#17e3a6"/><stop offset="1" stop-color="#ff669f"/></linearGradient></defs></svg>
